img/illustrations/background.svg

<?xml version="1.0" encoding="UTF-8"?>
<svg viewBox="0 0 400 333" xmlns="http://www.w3.org/2000/svg">
    <path d="m243.9 0.585c-0.509 0.314-1.248 0.815-1.641 1.114-0.394 0.3-1.64 1.231-2.77 2.07-13.236 9.828-20.419 23.857-21.667 42.317-0.066 0.972-0.203 2.904-0.305 4.293-0.103 1.389-0.166 2.607-0.141 2.707 0.049 0.193-0.38 6.449-0.558 8.151-0.333 3.181-0.444 3.973-0.809 5.808-3.691 18.56-20.925 35.888-37.89 38.098-0.394 0.052-0.887 0.159-1.096 0.239-0.208 0.079-2.14 0.444-4.293 0.811-8.696 1.48-10.83 1.895-13.005 2.531-1.25 0.366-2.553 0.718-2.896 0.783-0.343 0.066-0.741 0.204-0.884 0.309-0.143 0.104-1.112 0.519-2.154 0.922s-2.292 0.955-2.778 1.227c-0.486 0.271-1.338 0.741-1.894 1.043-6.862 3.732-19.247 15.295-21.112 19.71-0.055 0.13-0.767 1.357-1.583 2.726-3.437 5.77-4.789 10.024-5.109 16.071-0.419 7.924 1.196 14.622 4.718 19.571 1.723 2.42 2.477 3.139 7.556 7.195 7.257 5.797 9.628 8.668 10.728 12.997 1.325 5.211-0.745 11.659-5.608 17.471-0.448 0.535-1.623 1.996-2.612 3.246s-1.961 2.443-2.159 2.651c-3.376 3.543-9.693 12.997-9.693 14.507 0 0.104-0.156 0.548-0.348 0.986-0.958 2.186-2.476 7.609-2.768 9.886-2.037 15.908 1.428 23.596 12.306 27.305 7.715 2.631 15.531 1.832 29.321-2.997 7.871-2.757 11.888-3.86 16.666-4.577 0.417-0.062 1.496-0.234 2.399-0.382 12.503-2.049 24.168-0.634 34.273 4.156 1.003 0.475 1.877 0.864 1.941 0.864 1.182 0 12.904 7.553 16.24 10.464 1.313 1.147 5.873 4.302 7.521 5.205 0.833 0.456 1.686 0.961 1.894 1.121s1.117 0.613 2.02 1.006 2.21 0.972 2.904 1.287c3.727 1.69 13.468 4.721 17.803 5.539 1.042 0.196 2.178 0.432 2.525 0.524 0.348 0.091 2.904 0.207 5.682 0.257 5.405 0.097 6.761-0.059 11.49-1.321 1.32-0.352 2.513-0.662 2.652-0.689s0.366-0.115 0.505-0.196 0.593-0.229 1.01-0.328c2.563-0.611 11.415-4.915 16.481-8.012 0.871-0.533 1.639-0.968 1.707-0.968s0.595-0.341 1.17-0.758c0.575-0.416 1.19-0.757 1.366-0.757s0.357-0.102 0.404-0.227c0.128-0.345 4.484-2.934 7.233-4.299 7.896-3.919 17.105-4.794 29.088-2.766 1.597 0.271 3.359 0.551 3.914 0.623 1.139 0.149 6.399 1.291 13.889 3.017 2.778 0.64 5.335 1.213 5.682 1.274s0.9 0.171 1.228 0.246c0.328 0.074 1.181 0.198 1.894 0.275 0.714 0.076 1.364 0.18 1.446 0.23 0.489 0.299 6.38 0.379 9.195 0.125 3.337-0.301 12.709-1.415 14.204-1.688l0.821-0.149v-136.72-136.71l-77.588 8e-3 -77.589 8e-3 -0.926 0.569m-40.094 14.523c-2.913 1.563-1.956 6.724 1.248 6.724 1.067 0 1.995-0.643 2.902-2.009 1.965-2.96-1.045-6.38-4.15-4.715m-2.537 52.001c-1.663 0.834-2.046 2.857-0.78 4.123 1.081 1.081 2.651 0.892 3.881-0.468 1.859-2.053-0.575-4.922-3.101-3.655m-42.554 20.938c-3.697 1.953-3.538 6.944 0.273 8.536 3.231 1.35 6.902-1.592 6.336-5.078-0.465-2.863-4.118-4.775-6.609-3.458m-49.051 6.77c-1.708 0.749-1.989 2.793-0.577 4.205 1.385 1.385 4.092 0.573 4.384-1.315 0.322-2.075-1.87-3.739-3.807-2.89m-9.61 58.769c-0.713 0.712-0.018 1.901 0.934 1.599 0.277-0.088 0.576-0.387 0.664-0.665 0.303-0.952-0.886-1.647-1.598-0.934m8.924 55.187c-1.459 1.573-0.361 4.358 1.719 4.358 2.474 0 3.96-3.979 1.794-4.802-1.31-0.498-2.816-0.308-3.513 0.444m78.105 55.033c-0.231 0.061-0.6 0.492-0.821 0.956-1.125 2.372 1.554 4.282 3.407 2.429 1.75-1.75-0.019-4.065-2.586-3.385m132.04 12.362c-0.49 0.491-0.159 1.105 0.597 1.105 0.659 0 0.763-0.085 0.694-0.568-0.08-0.561-0.918-0.91-1.291-0.537m55.973 5.272c-0.08 0.209-0.074 0.663 0.013 1.01 0.229 0.912 1.584 0.912 1.812 0 0.241-0.96-0.039-1.389-0.906-1.389-0.455 0-0.833 0.156-0.919 0.379m-147.24 17.287c-2.652 1.618-1.682 5.313 1.395 5.313 3.06 0 3.967-4.281 1.156-5.456-1.123-0.469-1.589-0.443-2.551 0.143m-163.21 8.596c0 0.139 0.171 0.253 0.379 0.253 0.209 0 0.379-0.114 0.379-0.253s-0.17-0.252-0.379-0.252c-0.208 0-0.379 0.113-0.379 0.252" fill="#04fb8b" fill-rule="evenodd"/>
</svg>

<svg xmlns="http://www.w3.org/2000/svg" viewBox="0 0 400 333">
    <title>background</title>
    <path id="path1"
          d="M243.897 0.585 C 243.388 0.899,242.649 1.400,242.256 1.699 C 241.862 1.999,240.616 2.930,239.486 3.769 C 226.250 13.597,219.067 27.626,217.819 46.086 C 217.753 47.058,217.616 48.990,217.514 50.379 C 217.411 51.768,217.348 52.986,217.373 53.086 C 217.422 53.279,216.993 59.535,216.815 61.237 C 216.482 64.418,216.371 65.210,216.006 67.045 C 212.315 85.605,195.081 102.933,178.116 105.143 C 177.722 105.195,177.229 105.302,177.020 105.382 C 176.812 105.461,174.880 105.826,172.727 106.193 C 164.031 107.673,161.897 108.088,159.722 108.724 C 158.472 109.090,157.169 109.442,156.826 109.507 C 156.483 109.573,156.085 109.711,155.942 109.816 C 155.799 109.920,154.830 110.335,153.788 110.738 C 152.746 111.141,151.496 111.693,151.010 111.965 C 150.524 112.236,149.672 112.706,149.116 113.008 C 142.254 116.740,129.869 128.303,128.004 132.718 C 127.949 132.848,127.237 134.075,126.421 135.444 C 122.984 141.214,121.632 145.468,121.312 151.515 C 120.893 159.439,122.508 166.137,126.030 171.086 C 127.753 173.506,128.507 174.225,133.586 178.281 C 140.843 184.078,143.214 186.949,144.314 191.278 C 145.639 196.489,143.569 202.937,138.706 208.749 C 138.258 209.284,137.083 210.745,136.094 211.995 C 135.105 213.245,134.133 214.438,133.935 214.646 C 130.559 218.189,124.242 227.643,124.242 229.153 C 124.242 229.257,124.086 229.701,123.894 230.139 C 122.936 232.325,121.418 237.748,121.126 240.025 C 119.089 255.933,122.554 263.621,133.432 267.330 C 141.147 269.961,148.963 269.162,162.753 264.333 C 170.624 261.576,174.641 260.473,179.419 259.756 C 179.836 259.694,180.915 259.522,181.818 259.374 C 194.321 257.325,205.986 258.740,216.091 263.530 C 217.094 264.005,217.968 264.394,218.032 264.394 C 219.214 264.394,230.936 271.947,234.272 274.858 C 235.585 276.005,240.145 279.160,241.793 280.063 C 242.626 280.519,243.479 281.024,243.687 281.184 C 243.895 281.344,244.804 281.797,245.707 282.190 C 246.610 282.583,247.917 283.162,248.611 283.477 C 252.338 285.167,262.079 288.198,266.414 289.016 C 267.456 289.212,268.592 289.448,268.939 289.540 C 269.287 289.631,271.843 289.747,274.621 289.797 C 280.026 289.894,281.382 289.738,286.111 288.476 C 287.431 288.124,288.624 287.814,288.763 287.787 C 288.902 287.760,289.129 287.672,289.268 287.591 C 289.407 287.510,289.861 287.362,290.278 287.263 C 292.841 286.652,301.693 282.348,306.759 279.251 C 307.630 278.718,308.398 278.283,308.466 278.283 C 308.534 278.283,309.061 277.942,309.636 277.525 C 310.211 277.109,310.826 276.768,311.002 276.768 C 311.178 276.768,311.359 276.666,311.406 276.541 C 311.534 276.196,315.890 273.607,318.639 272.242 C 326.535 268.323,335.744 267.448,347.727 269.476 C 349.324 269.747,351.086 270.027,351.641 270.099 C 352.780 270.248,358.040 271.390,365.530 273.116 C 368.308 273.756,370.865 274.329,371.212 274.390 C 371.559 274.451,372.112 274.561,372.440 274.636 C 372.768 274.710,373.621 274.834,374.334 274.911 C 375.048 274.987,375.698 275.091,375.780 275.141 C 376.269 275.440,382.160 275.520,384.975 275.266 C 388.312 274.965,397.684 273.851,399.179 273.578 L 400.000 273.429 400.000 136.714 L 400.000 0.000 322.412 0.008 L 244.823 0.016 243.897 0.585 M203.803 15.108 C 200.890 16.671,201.847 21.832,205.051 21.832 C 206.118 21.832,207.046 21.189,207.953 19.823 C 209.918 16.863,206.908 13.443,203.803 15.108 M201.266 67.109 C 199.603 67.943,199.220 69.966,200.486 71.232 C 201.567 72.313,203.137 72.124,204.367 70.764 C 206.226 68.711,203.792 65.842,201.266 67.109 M158.712 88.047 C 155.015 90.000,155.174 94.991,158.985 96.583 C 162.216 97.933,165.887 94.991,165.321 91.505 C 164.856 88.642,161.203 86.730,158.712 88.047 M109.661 94.817 C 107.953 95.566,107.672 97.610,109.084 99.022 C 110.469 100.407,113.176 99.595,113.468 97.707 C 113.790 95.632,111.598 93.968,109.661 94.817 M100.051 153.586 C 99.338 154.298,100.033 155.487,100.985 155.185 C 101.262 155.097,101.561 154.798,101.649 154.520 C 101.952 153.568,100.763 152.873,100.051 153.586 M108.975 208.773 C 107.516 210.346,108.614 213.131,110.694 213.131 C 113.168 213.131,114.654 209.152,112.488 208.329 C 111.178 207.831,109.672 208.021,108.975 208.773 M187.080 263.806 C 186.849 263.867,186.480 264.298,186.259 264.762 C 185.134 267.134,187.813 269.044,189.666 267.191 C 191.416 265.441,189.647 263.126,187.080 263.806 M319.118 276.168 C 318.628 276.659,318.959 277.273,319.715 277.273 C 320.374 277.273,320.478 277.188,320.409 276.705 C 320.329 276.144,319.491 275.795,319.118 276.168 M375.091 281.440 C 375.011 281.649,375.017 282.103,375.104 282.450 C 375.333 283.362,376.688 283.362,376.916 282.450 C 377.157 281.490,376.877 281.061,376.010 281.061 C 375.555 281.061,375.177 281.217,375.091 281.440 M227.853 298.727 C 225.201 300.345,226.171 304.040,229.248 304.040 C 232.308 304.040,233.215 299.759,230.404 298.584 C 229.281 298.115,228.815 298.141,227.853 298.727 M64.646 307.323 C 64.646 307.462,64.817 307.576,65.025 307.576 C 65.234 307.576,65.404 307.462,65.404 307.323 C 65.404 307.184,65.234 307.071,65.025 307.071 C 64.817 307.071,64.646 307.184,64.646 307.323"
          stroke="none" fill="#04fb8b" fill-rule="evenodd"/>
</svg>
